X:1
T:Looking This Way
T:Looking This Way
T:Judson Wheeler Van DeVenter
T:Judson Wheeler Van DeVenter, 1895
T:Public Domain Courtesy of the Cyber Hymnal™
T:Public Domain Courtesy of the Cyber Hymnal™
C:Judson Wheeler Van DeVenter
Z:Public Domain
Z:Courtesy of the Cyber Hymnal™
%%score ( 1 2 ) ( 3 4 )
L:1/8
Q:1/4=105
M:9/8
K:G
V:1 treble 
V:2 treble 
V:3 bass 
V:4 bass 
V:1
"^Solo or Duet" B^AB | G3 G3 B^AB | c3- c2 z cBc | A3 A3 d^cd | B3- B3 B^AB | G3 G3 B^AB | %6
w: 1.~O- ver the|riv- er, fac- es I|see, * Fair as the|morn- ing, look- ing for|me; * Free from their|sor- row, grief and des-|
w: 2.~Fa- ther and|mo- ther, safe in that|vale, * Watch for the|boat- man, wait for the|sail, * Bear- ing their|loved ones o- ver the|
w: 3.~Bro- ther and|sis- ter, gone to that|clime, * Wait for the|o- thers, com- ing some-|time, * Safe with the|an- gels, whit- er than|
w: 4.~Sweet lit- tle|dar- ling, light of the|home, * Look- ing for|some- one, beck- on- ing,|“Come”; * Bright as a|sun- beam, pure as the|
 c3- c3 GFE | D3 G3 BGA | G3- G3 ||"^Refrain" [Gd][G^c][Gd] | [GB]3 [GB]3 [Gd][G^c][Gd] | %11
w: pair, * Wait- ing and|watch- ing pa- tient- ly|there. *|||
w: tide, * In- to the|har- bor, near to their|side. *|Look- ing this|way, yes, look- ing this|
w: snow, * Watch- ing for|dear ones, wait- ing be-|low. *|||
w: dew, * Anx- ious- ly|look- ing, mo- ther, for|you. *|||
 [Fc]3- [Fc]3 [Ac][^GB][Ac] | [FA]3 [FA]3 D[DG][Gc] | [GB]3- [GB]3 [GB][G^A][GB] | %14
w: |||
w: way, * Loved ones are|wait- ing, look- ing this|way; * Fair as the|
w: |||
w: |||
 G3 G3 [=FB][F^A][FB] | [Ec]3- [Ec]3 [EG][DF][CE] | [B,D]3 [DG]3 [GB]G[FA] | G6 |] %18
w: ||||
w: morn- ing, bright as the|day, * Dear ones in|glo- ry, look- ing this|way.|
w: ||||
w: ||||
V:2
 x3 | x9 | x9 | x9 | x9 | x9 | x9 | x9 | x6 || x3 | x9 | x9 | x6 D x2 | x9 | G3 G3 x3 | x9 | %16
 x7 G x | G6 |] %18
V:3
 D^CD | [G,,-B,]3 [G,,B,]3 D^CD | [A,,A,D]3- [A,,A,D]2 z A,^G,B, | [D,F,]3- [D,F,]3 B,^A,B, | %4
 [G,,G,]3- [G,,G,]3 D^CD | [G,,-B,]3 [G,,B,]3 D^CD | [C,E]3- [C,E]3 EDC | [D,-B,]3 [D,B,]3 DB,C | %8
 [G,,B,]3- [G,,B,]3 || [G,B,][G,^A,][G,B,] | [G,D]3 [G,D]3 [G,B,][G,^A,][G,B,] | %11
 [A,D]3- [A,D]3 [D,D][D,D][D,D] | [D,D]3 [D,D]3 [G,B,][G,B,][G,E] | %13
 [G,D]3- [G,D]3 [G,D][G,^C][G,D] | [G,B,]3 [G,B,]3 [G,D][G,D][G,D] | %15
 [C,C]3- [C,C]3 [C,C][C,C][C,G,] | [D,G,]3 [D,B,]3 [D,D][D,B,][D,C] | [G,,B,]6 |] %18
V:4
 G,,3 | x6 G,,3 | x6 D,3 | x6 D,3 | x6 G,,3 | x6 G,,3 | x6 C,3 | x6 D,,3 | x6 || x3 | x9 | x9 | %12
 x9 | x9 | x9 | x9 | x9 | x6 |] %18

